!!!!SEGMENT: pl-sa--79-a-ii-19--015_siwinski-andrzej--missa-pro-defunctis-hostias.krn
!!!cenid: 17xx:307
!!!COM: Siwiński, Andrzej
!!!COM-rismid: pe41011487
!!!CDT: <1725->1725
!!!CNT:
!!!OPR: Missa pro defunctis
!!!OTL: Hostias
!!!OMV: 015
!!!PDT: 1726
!!!AGN: Sacred; Mass
!!!SMS-siglum: PL-SA
!!!SMS-shelfmark: 79/A II 19
!!!SMS-shelfwork: 001-015 M
!!!NIFC-rismid: 1001070177
!!!URL-scan: http://bc.bdsandomierz.pl/dlibra/publication/1356/edition/1324/content
!!!ONB-nifc: Uwaga: części Mszy: Requiem, Kyrie, Dies Irae, Quantus tremor, Tuba mirrum, Mors, Quid sum miser, Rex tremende, Quaerens me, Iuste iudex, Oro supplex, Pie Iesu Domine, Domine Iesu Christe,Quam olim Abrahae, Hostias, Sanctus, Osanna, Benedictus, Agnus Dei
**kern	**fba	**kern	**kern	**kern	**text	**kern	**text	**kern	**text	**kern	**text	**kern	**kern	**dynam
*part9	*	*part8	*part7	*part6	*part6	*part5	*part5	*part4	*part4	*part3	*part3	*part2	*part1	*
*staff9	*	*staff8	*staff7	*staff6	*staff6	*staff5	*staff5	*staff4	*staff4	*staff3	*staff3	*staff2	*staff1	*
*Iorgan	*	*Ivioln	*Ivioln	*Iempty	*	*Itenor	*	*Ialto	*	*Ivox	*	*Ioboe	*Ioboe	*
*I"Baſso pro Organo	*	*I"Violino. 2do	*I"Violino 1mo	*I"Baſso vocali	*	*I"Tenore	*	*I"Alto.	*	*I"Canto.	*	*I"Hobois 2do.	*I"Hautbo. 1mo.	*
*I'org	*	*I'vl 1	*I'vl 2	*I'B	*	*I'T	*	*I'A	*	*I'S	*	*I'ob 2	*I'ob 1	*
*clefF4	*	*clefG2	*clefG2	*clefF4	*	*clefC4	*	*clefC3	*	*clefC1	*	*clefG2	*clefG2	*
*k[b-e-]	*	*k[b-e-]	*k[b-e-]	*k[b-e-]	*	*k[b-e-]	*	*k[b-e-]	*	*k[b-e-]	*	*k[b-e-]	*k[b-e-]	*
*B-:	*	*B-:	*B-:	*B-:	*	*B-:	*	*B-:	*	*B-:	*	*B-:	*B-:	*
*M2/2	*	*M2/2	*M2/2	*M2/2	*	*M2/2	*	*M2/2	*	*M2/2	*	*M2/2	*M2/2	*
*met(c|)	*	*met(c|)	*met(c|)	*met(c|)	*	*met(c|)	*	*met(c|)	*	*met(c|)	*	*met(c|)	*met(c|)	*
=1	=1	=1	=1	=1	=1	=1	=1	=1	=1	=1	=1	=1	=1	=1
!LO:TX:i:b:t=Hobo.	!	!LO:TX:a:t=P:problem: znaki przykluczowe:ee-, b-	!LO:TX:a:t=P:problem:w źródle metrum "C" z kropką w środku	!	!	!	!	!	!LO:TX:a:t=P:problem: znaki przykluczowe: b-, ee-	!	!	!LO:TX:a:t=P:problem: znaki przykluczowe:ee-, b-	!	!
!LO:TX:i:a:t=Solo lente	!	!	!	!	!	!	!	!LO:TX:i:b:t=Hostias	!	!	!	!	!LO:TX:a:i:t=Solo	!
!LO:TX:a:t=P:problem:brak nazwy partii na karcie (na stronie tytułowej "Baſso pro Organo")	!	!	!LO:TX:i:a:t=Hostias C.	!LO:TX:a:t=P:problem:brak nazwy partii (na stronie tytułowej "Baſso vocali")	!	!LO:TX:a:t=P:problem:brak nazwy partii na karcie (na stronie tytułowej "Tenore")	!	!LO:TX:i:a:t=canto	!	!LO:TX:a:i:t=Solo	!	!	!LO:TX:b:i:t=Hostias et preces	!
!	!	!LO:N:vis=00	!LO:N:vis=00	!LO:N:vis=00	!	!LO:N:vis=00	!	!LO:N:vis=00	!	!LO:N:vis=0	!	!LO:N:vis=00	!	!
8C/L	.	00r	00r	00r	.	00r	.	00r	.	0r	.	00r	4cc\	.
8D/	.	.	.	.	.	.	.	.	.	.	.	.	.	.
8E-/	.	.	.	.	.	.	.	.	.	.	.	.	8cc\L	.
8C/J	.	.	.	.	.	.	.	.	.	.	.	.	16dd\L	.
.	.	.	.	.	.	.	.	.	.	.	.	.	16ee-\JJ	.
8GG/L	.	.	.	.	.	.	.	.	.	.	.	.	4dd\	.
8AA/	.	.	.	.	.	.	.	.	.	.	.	.	.	.
8BBn/	.	.	.	.	.	.	.	.	.	.	.	.	4r	.
8AA/J	.	.	.	.	.	.	.	.	.	.	.	.	.	.
=2	=2	=2	=2	=2	=2	=2	=2	=2	=2	=2	=2	=2	=2	=2
4GG/	.	.	.	.	.	.	.	.	.	.	.	.	4dd\	.
4r	.	.	.	.	.	.	.	.	.	.	.	.	8dd\L	.
.	.	.	.	.	.	.	.	.	.	.	.	.	16ee-\L	.
.	.	.	.	.	.	.	.	.	.	.	.	.	16ff\JJ	.
8C/L	.	.	.	.	.	.	.	.	.	.	.	.	4ee-\	.
8D/	.	.	.	.	.	.	.	.	.	.	.	.	.	.
8E-/	.	.	.	.	.	.	.	.	.	.	.	.	8r	.
8C/J	.	.	.	.	.	.	.	.	.	.	.	.	8gg\	.
=3	=3	=3	=3	=3	=3	=3	=3	=3	=3	=3	=3	=3	=3	=3
!LO:TX:a:t=P:problem:mixed beam	!	!	!	!	!	!	!	!	!	!	!	!	!	!
8GG/L	.	.	.	.	.	.	.	.	.	1r	.	.	8bn/L	.
8G\	.	.	.	.	.	.	.	.	.	.	.	.	8g/J	.
8E-\	X 6	.	.	.	.	.	.	.	.	.	.	.	4cc\	.
8C\J	.	.	.	.	.	.	.	.	.	.	.	.	.	.
!LO:LB:g=original	!	!	!	!	!	!	!	!	!	!	!	!	!	!
!LO:TX:a:t=P:problem:mixed beam	!	!	!	!	!	!	!	!	!	!	!	!	!	!
8F\L	.	.	.	.	.	.	.	.	.	.	.	.	8dd\L	.
8D\	.	.	.	.	.	.	.	.	.	.	.	.	16ee-\L	.
.	.	.	.	.	.	.	.	.	.	.	.	.	16ff\JJ	.
8G\	.	.	.	.	.	.	.	.	.	.	.	.	8.bnm>/L	.
!LO:TX:i:b:t=Cant. Hostias et preces.	!	!	!	!	!	!	!	!	!	!	!	!	!	!
8GG/J	.	.	.	.	.	.	.	.	.	.	.	.	.	.
.	.	.	.	.	.	.	.	.	.	.	.	.	16b/Jk	.
=4	=4	=4	=4	=4	=4	=4	=4	=4	=4	=4	=4	=4	=4	=4
8C/L	.	.	.	.	.	.	.	.	.	8.cc\	Hos-	.	4cc\	.
8D/	.	.	.	.	.	.	.	.	.	.	.	.	.	.
.	.	.	.	.	.	.	.	.	.	16cc\	-ti-	.	.	.
8E-/	.	.	.	.	.	.	.	.	.	8cc\	-as	.	4r	.
8F/J	.	.	.	.	.	.	.	.	.	(>16dd\LL	et	.	.	.
.	.	.	.	.	.	.	.	.	.	16cc\JJ)	.	.	.	.
8G\L	.	.	.	.	.	.	.	.	.	(>8.bn\L	pre-	.	2rg	.
8A\	.	.	.	.	.	.	.	.	.	.	.	.	.	.
.	.	.	.	.	.	.	.	.	.	16a\Jk)	.	.	.	.
8Bn\	.	.	.	.	.	.	.	.	.	4g/	-ces	.	.	.
8G\J	.	.	.	.	.	.	.	.	.	.	.	.	.	.
=5	=5	=5	=5	=5	=5	=5	=5	=5	=5	=5	=5	=5	=5	=5
!	!	!	!	!	!	!	!	!	!	!	!	!	!	!LO:HP:b:i:t=piano
!	!	!LO:N:vis=00	!LO:N:vis=00	!LO:N:vis=00	!	!LO:N:vis=00	!	!LO:N:vis=00	!	!	!	!LO:N:vis=00	!	!LO:DY:b:rj
8C/L	.	00r	00r	00r	.	00r	.	00r	.	8.ee-\	hos-	00r	8cc\L	p
8D/	.	.	.	.	.	.	.	.	.	.	.	.	8cc\J	.
.	.	.	.	.	.	.	.	.	.	16ee-\	-ti-	.	.	.
8E-/	.	.	.	.	.	.	.	.	.	8ee-\	-as	.	8cc\L	.
8F/J	.	.	.	.	.	.	.	.	.	(>16ff\LL	et	.	(>16dd\L	.
.	.	.	.	.	.	.	.	.	.	16ee-\JJ)	.	.	16cc\JJ)	.
!LO:TX:a:t=P:problem:mixed beam	!	!	!	!	!	!	!	!	!	!	!	!	!	!
8G\L	.	.	.	.	.	.	.	.	.	(>8.dd\L	pre-	.	8.bn/L	.
8GG/	.	.	.	.	.	.	.	.	.	.	.	.	.	.
.	.	.	.	.	.	.	.	.	.	16cc\Jk)	.	.	16a/Jk	.
8BBn/	X 6	.	.	.	.	.	.	.	.	4bn\	-ces	.	4g/	.
8GG/J	.	.	.	.	.	.	.	.	.	.	.	.	.	.
!	!	!	!	!	!	!	!	!	!	!	!	!	!LO:LB:g=original	!
=6	=6	=6	=6	=6	=6	=6	=6	=6	=6	=6	=6	=6	=6	=6
!	!	!	!	!	!	!	!	!	!	!	!	!	!LO:TX:a:t=1.	!
8C/L	.	.	.	.	.	.	.	.	.	(>8.ee-\L	ti-	.	1r	.
8D/	.	.	.	.	.	.	.	.	.	.	.	.	.	.
.	.	.	.	.	.	.	.	.	.	16ff\Jk)	.	.	.	.
8E-/	.	.	.	.	.	.	.	.	.	4gg\	-bi	.	.	.
8C/J	.	.	.	.	.	.	.	.	.	.	.	.	.	.
8D/L	.	.	.	.	.	.	.	.	.	8.ff\	Do-	.	.	.
8C/	.	.	.	.	.	.	.	.	.	.	.	.	.	.
.	.	.	.	.	.	.	.	.	.	16ee-\	-mi-	.	.	.
8BBn/	.	.	.	.	.	.	.	.	.	8dd\	-ne	.	.	.
8GG/J	.	.	.	.	.	.	.	.	.	8gg\	lau-	.	.	.
=7	=7	=7	=7	=7	=7	=7	=7	=7	=7	=7	=7	=7	=7	=7
!LO:TX:a:t=P:problem:mixed beam	!	!	!	!	!	!	!	!	!	!	!	!	!	!
!	!	!	!	!	!	!	!	!	!	!	!LO:SIC:s=-dis	!	!	!
8A-X\L	.	.	.	.	.	.	.	.	.	(>16ff\LL	-des	.	2r	.
.	.	.	.	.	.	.	.	.	.	16gg\JJ)	.	.	.	.
8F\	.	.	.	.	.	.	.	.	.	(>16ee-\LL	of-	.	.	.
.	.	.	.	.	.	.	.	.	.	16ff\JJ)	.	.	.	.
!	!	!	!	!	!	!	!	!	!	!LO:LB:g=original	!	!	!	!
8G\	.	.	.	.	.	.	.	.	.	8.dd\	-fe-	.	.	.
8GG/J	.	.	.	.	.	.	.	.	.	.	.	.	.	.
.	.	.	.	.	.	.	.	.	.	16cc\	-ri-	.	.	.
!LO:TX:a:t=P:problem:mixed beam	!	!	!	!	!	!	!	!	!	!	!	!	!	!
8C\L	.	.	.	.	.	.	.	.	.	4cc\	-mus	.	8cc\L	.
8F\	X 7	.	.	.	.	.	.	.	.	.	.	.	16dd\L	.
.	.	.	.	.	.	.	.	.	.	.	.	.	16ee-\JJ	.
8G\	.	.	.	.	.	.	.	.	.	4r	.	.	8.bnm>\L	.
8GG/J	X 4	.	.	.	.	.	.	.	.	.	.	.	.	.
.	X 3	.	.	.	.	.	.	.	.	.	.	.	16b\Jk	.
=8	=8	=8	=8	=8	=8	=8	=8	=8	=8	=8	=8	=8	=8	=8
8C/L	.	.	.	.	.	.	.	.	.	4r	.	.	4cc\	.
8D/	.	.	.	.	.	.	.	.	.	.	.	.	.	.
8E-/	.	.	.	.	.	.	.	.	.	(>8cc\L	Tu	.	4r	.
8C/J	.	.	.	.	.	.	.	.	.	8dd\J)	.	.	.	.
8c\L	.	.	.	.	.	.	.	.	.	8.ee-\	ſus-	.	2rg	.
8c\	.	.	.	.	.	.	.	.	.	.	.	.	.	.
.	.	.	.	.	.	.	.	.	.	16ee-\	-ci-	.	.	.
8Bn\	X 6	.	.	.	.	.	.	.	.	4dd\	-pe	.	.	.
8G\J	.	.	.	.	.	.	.	.	.	.	.	.	.	.
=9	=9	=9	=9	=9	=9	=9	=9	=9	=9	=9	=9	=9	=9	=9
!	!	!LO:N:vis=00	!LO:N:vis=00	!LO:N:vis=00	!	!LO:N:vis=00	!	!LO:N:vis=00	!	!	!	!LO:N:vis=00	!	!
!LO:TX:a:t=P:problem:mixed beam	!	!	!	!	!	!	!	!	!	!	!	!	!	!
8A-X\L	.	00r	00r	00r	.	00r	.	00r	.	8.cc\	ſus-	00r	1r	.
8F\	.	.	.	.	.	.	.	.	.	.	.	.	.	.
.	.	.	.	.	.	.	.	.	.	16cc\	-ci-	.	.	.
8G\	.	.	.	.	.	.	.	.	.	4bn\	-pe	.	.	.
8GG/J	.	.	.	.	.	.	.	.	.	.	.	.	.	.
!LO:LB:g=original	!	!	!	!	!	!	!	!	!	!	!	!	!	!
8C/L	.	.	.	.	.	.	.	.	.	8r	.	.	.	.
8D/	.	.	.	.	.	.	.	.	.	(>16cc\LL	pro	.	.	.
.	.	.	.	.	.	.	.	.	.	16dd\JJ)	.	.	.	.
8C/	.	.	.	.	.	.	.	.	.	8ee-\	a-	.	.	.
8BB-/J	.	.	.	.	.	.	.	.	.	8dd\	-ni-	.	.	.
=10	=10	=10	=10	=10	=10	=10	=10	=10	=10	=10	=10	=10	=10	=10
!LO:TX:a:t=P:problem:mixed beam	!	!	!	!	!	!	!	!	!	!	!	!	!	!
8AA/L	.	.	.	.	.	.	.	.	.	(>16cc\LL	-ma-	.	2r	.
.	.	.	.	.	.	.	.	.	.	16dd\JJ)	.	.	.	.
8GG/	.	.	.	.	.	.	.	.	.	(>16b-\LL	-bus	.	.	.
.	.	.	.	.	.	.	.	.	.	16cc\JJ)	.	.	.	.
8D\	.	.	.	.	.	.	.	.	.	4a\	il-	.	.	.
8DD/J	.	.	.	.	.	.	.	.	.	.	.	.	.	.
8GG/L	.	.	.	.	.	.	.	.	.	4g/	-lis	.	8gg\L	.
8C/	X 7	.	.	.	.	.	.	.	.	.	.	.	16aa\L	.
.	.	.	.	.	.	.	.	.	.	.	.	.	16bb-\JJ	.
8D/	.	.	.	.	.	.	.	.	.	4r	.	.	8.ff#Xm>\L	.
8DD/J	.	.	.	.	.	.	.	.	.	.	.	.	.	.
.	.	.	.	.	.	.	.	.	.	.	.	.	16ff#\Jk	.
=11	=11	=11	=11	=11	=11	=11	=11	=11	=11	=11	=11	=11	=11	=11
8GG/L	.	.	.	.	.	.	.	.	.	4.gg\	Qua-	.	4gg\	.
8C/	.	.	.	.	.	.	.	.	.	.	.	.	.	.
8E-/	.	.	.	.	.	.	.	.	.	.	.	.	4r	.
8C/J	.	.	.	.	.	.	.	.	.	8cc\	-rum	.	.	.
8GG/L	.	.	.	.	.	.	.	.	.	8.bn\	ho-	.	2r	.
8GG/	.	.	.	.	.	.	.	.	.	.	.	.	.	.
.	.	.	.	.	.	.	.	.	.	16b\	-di-	.	.	.
8AA/	.	.	.	.	.	.	.	.	.	8cc\	-e	.	.	.
8BBn/J	.	.	.	.	.	.	.	.	.	8dd\	me-	.	.	.
=12	=12	=12	=12	=12	=12	=12	=12	=12	=12	=12	=12	=12	=12	=12
!LO:TX:a:t=P:problem:mixed beam	!	!	!	!	!	!	!	!	!	!	!	!	!	!
8C\L	.	.	.	.	.	.	.	.	.	8ee-\	-mo-	.	2r	.
8F\	X 7	.	.	.	.	.	.	.	.	16ff\	-ri-	.	.	.
.	.	.	.	.	.	.	.	.	.	16gg\	-a	.	.	.
8G\	.	.	.	.	.	.	.	.	.	8.dd\	fa-	.	.	.
8GG/J	.	.	.	.	.	.	.	.	.	.	.	.	.	.
.	.	.	.	.	.	.	.	.	.	16cc\	-ci-	.	.	.
!	!	!	!	!	!	!	!	!	!	!LO:LB:g=original	!	!	!	!
!LO:TX:a:t=P:problem:mixed beam	!	!	!	!	!	!	!	!	!	!	!	!	!	!
8C\L	.	.	.	.	.	.	.	.	.	4cc\	-mus	.	8cc\L	.
8F\	X 7	.	.	.	.	.	.	.	.	.	.	.	16dd\L	.
.	.	.	.	.	.	.	.	.	.	.	.	.	16ee-\JJ	.
8G\	.	.	.	.	.	.	.	.	.	4r	.	.	8.bn\L	.
8GG/J	.	.	.	.	.	.	.	.	.	.	.	.	.	.
.	.	.	.	.	.	.	.	.	.	.	.	.	16b\Jk	.
=13	=13	=13	=13	=13	=13	=13	=13	=13	=13	=13	=13	=13	=13	=13
!	!	!LO:N:vis=00	!LO:N:vis=00	!LO:N:vis=00	!	!LO:N:vis=00	!	!LO:N:vis=00	!	!	!	!LO:N:vis=00	!	!
8C/L	.	00r	00r	00r	.	00r	.	00r	.	4.gg\	Qua-	00r	4cc\	.
8D/	.	.	.	.	.	.	.	.	.	.	.	.	.	.
8E-/	.	.	.	.	.	.	.	.	.	.	.	.	4r	.
8C/J	.	.	.	.	.	.	.	.	.	8cc\	-rum	.	.	.
8GG/L	.	.	.	.	.	.	.	.	.	8.bn\	ho-	.	2rg	.
8GG/	.	.	.	.	.	.	.	.	.	.	.	.	.	.
.	.	.	.	.	.	.	.	.	.	16b\	-di-	.	.	.
8AA/	.	.	.	.	.	.	.	.	.	8cc\	-e	.	.	.
8BBn/J	X 6	.	.	.	.	.	.	.	.	8dd\	me-	.	.	.
=14	=14	=14	=14	=14	=14	=14	=14	=14	=14	=14	=14	=14	=14	=14
!LO:TX:a:t=P:problem:mixed beam	!	!	!	!	!	!	!	!	!	!	!	!	!	!
8C\L	.	.	.	.	.	.	.	.	.	8ee-\	-mo-	.	2rg	.
8F\	.	.	.	.	.	.	.	.	.	16ff\	-ri-	.	.	.
.	.	.	.	.	.	.	.	.	.	16gg\	-am	.	.	.
8G\	.	.	.	.	.	.	.	.	.	8.dd\	fa-	.	.	.
8GG/J	.	.	.	.	.	.	.	.	.	.	.	.	.	.
.	.	.	.	.	.	.	.	.	.	16cc\	-ci-	.	.	.
8C/L	.	.	.	.	.	.	.	.	.	4cc\	-mus	.	4cc\	.
8D/	.	.	.	.	.	.	.	.	.	.	.	.	.	.
8E-/	.	.	.	.	.	.	.	.	.	4r	.	.	8cc\L	.
8C/J	.	.	.	.	.	.	.	.	.	.	.	.	16dd\L	.
.	.	.	.	.	.	.	.	.	.	.	.	.	16ee-\JJ	.
=15	=15	=15	=15	=15	=15	=15	=15	=15	=15	=15	=15	=15	=15	=15
!	!	!	!	!	!	!	!	!	!	!LO:TX:a:t=3.	!	!	!	!
!	!	!	!	!	!	!	!	!	!	!LO:N:vis=0	!	!	!	!
8GG/L	.	.	.	.	.	.	.	.	.	0r	.	.	4dd\	.
8AA/	.	.	.	.	.	.	.	.	.	.	.	.	.	.
8BBn/	.	.	.	.	.	.	.	.	.	.	.	.	4r	.
8AA/J	.	.	.	.	.	.	.	.	.	.	.	.	.	.
4GG/	.	.	.	.	.	.	.	.	.	.	.	.	4dd\	.
4r	.	.	.	.	.	.	.	.	.	.	.	.	8dd\L	.
.	.	.	.	.	.	.	.	.	.	.	.	.	16ee-\L	.
.	.	.	.	.	.	.	.	.	.	.	.	.	16ff\JJ	.
!LO:LB:g=original	!	!	!	!	!	!	!	!	!	!	!	!	!	!
=16	=16	=16	=16	=16	=16	=16	=16	=16	=16	=16	=16	=16	=16	=16
8C/L	.	.	.	.	.	.	.	.	.	.	.	.	4ee-\	.
8D/	.	.	.	.	.	.	.	.	.	.	.	.	.	.
8E-/	.	.	.	.	.	.	.	.	.	.	.	.	8r	.
8C/J	.	.	.	.	.	.	.	.	.	.	.	.	8gg\	.
!LO:TX:a:t=P:problem:mixed beam	!	!	!	!	!	!	!	!	!	!	!	!	!LO:LB:g=original	!
8GG/L	.	.	.	.	.	.	.	.	.	.	.	.	8bn/L	.
8G\	.	.	.	.	.	.	.	.	.	.	.	.	8g/J	.
8E-\	X 6	.	.	.	.	.	.	.	.	.	.	.	4cc\	.
8C\J	.	.	.	.	.	.	.	.	.	.	.	.	.	.
=17	=17	=17	=17	=17	=17	=17	=17	=17	=17	=17	=17	=17	=17	=17
!	!	!LO:N:vis=0	!LO:N:vis=0	!LO:N:vis=0	!	!LO:N:vis=0	!	!LO:N:vis=0	!	!	!	!LO:N:vis=0	!	!
!LO:TX:a:t=P:problem:mixed beam	!	!	!	!	!	!	!	!	!	!	!	!	!	!
8F\L	.	0r	0r	0r	.	0r	.	0r	.	1r	.	0r	8dd\L	.
8D\	.	.	.	.	.	.	.	.	.	.	.	.	16ee-\L	.
.	.	.	.	.	.	.	.	.	.	.	.	.	16ff\JJ	.
8G\	.	.	.	.	.	.	.	.	.	.	.	.	8.bn/L	.
8GG/J	.	.	.	.	.	.	.	.	.	.	.	.	.	.
.	.	.	.	.	.	.	.	.	.	.	.	.	16b/Jk	.
8C/L	.	.	.	.	.	.	.	.	.	.	.	.	4cc\	.
8D/	.	.	.	.	.	.	.	.	.	.	.	.	.	.
8E-/	.	.	.	.	.	.	.	.	.	.	.	.	8r	.
8C/J	.	.	.	.	.	.	.	.	.	.	.	.	8gg\	.
=18	=18	=18	=18	=18	=18	=18	=18	=18	=18	=18	=18	=18	=18	=18
!LO:TX:a:t=P:problem:mixed beam	!	!	!	!	!	!	!	!	!	!LO:TX:a:t=P:problem:o 1 takt pauzy za mało	!	!	!	!
8GG/L	.	.	.	.	.	.	.	.	.	1ryy	.	.	8bn/L	.
8G\	.	.	.	.	.	.	.	.	.	.	.	.	8g/J	.
8E-\	X 6	.	.	.	.	.	.	.	.	.	.	.	4cc\	.
8C\J	.	.	.	.	.	.	.	.	.	.	.	.	.	.
!LO:TX:a:t=P:problem:mixed beam	!	!	!	!	!	!	!	!	!	!	!	!	!	!
8F\L	.	.	.	.	.	.	.	.	.	.	.	.	8dd\L	.
8D\	.	.	.	.	.	.	.	.	.	.	.	.	16ee-\L	.
.	.	.	.	.	.	.	.	.	.	.	.	.	16ff\JJ	.
!LO:TX:b:i:t=Tutti Fac eas D(omi)ne.	!	!	!	!	!	!	!	!	!	!	!	!	!	!
8G\	.	.	.	.	.	.	.	.	.	.	.	.	8.bn/L	.
8GG/J	X 4	.	.	.	.	.	.	.	.	.	.	.	.	.
.	X 3	.	.	.	.	.	.	.	.	.	.	.	16b/Jk	.
!	!	!	!	!	!	!	!	!LO:LB:g=original	!	!	!	!	!	!
=19	=19	=19	=19	=19	=19	=19	=19	=19	=19	=19	=19	=19	=19	=19
8C/L	.	2rg	2r	8r	.	8r	.	8r	.	8r	.	2rg	4cc\	.
!	!	!	!	!LO:LB:g=original	!	!	!	!	!	!	!	!	!	!
8C/	.	.	.	8C/	Fac	8c\	Fac	8g\	Fac	8ee-\	Fac	.	.	.
8E-/	.	.	.	8E-\	e-	8c\	e-	8g\	e-	8ee-\	e-	.	4r	.
8C/J	.	.	.	8C/	-as	8c\	-as	8g\	-as	8ee-\	-as	.	.	.
4G\	.	8r	8r	8.G\	Do-	8.c\	Do-	8.g\	Do-	8.dd\	Do-	8r	8r	.
!	!	!LO:TX:a:t=P:problem:♮ above	!	!	!	!	!	!	!	!	!	!	!	!
.	.	8bn\L	8dd\L	.	.	.	.	.	.	.	.	8bn\L	8dd\L	.
.	.	.	.	16G\	-mi-	16Bn\	-mi-	16g\	-mi-	16dd\	-mi-	.	.	.
4r	.	8b\	8dd\	4G\	-ne	4B\	-ne	4g\	-ne	4dd\	-ne	8b\	8dd\	.
.	.	8b\J	8dd\J	.	.	.	.	.	.	.	.	8b\J	8dd\J	.
=20	=20	=20	=20	=20	=20	=20	=20	=20	=20	=20	=20	=20	=20	=20
!	!	!	!	!	!	!	!	!	!	!	!	!LO:TX:a:t=P:problem:♮ above	!LO:SIC:s=4dd	!
8r	.	4bn\	4dd\	8r	.	8r	.	8r	.	8r	.	4bn\	4ee-\	.
*	*	*	*	*	*ij	*	*ij	*	*ij	*	*	*	*	*
!	!	!	!	!	!	!	!	!	!	!LO:TX:a:t=P:problem:brak tekstu (uszkodzony papier)	!	!	!	!
8G\L	.	.	.	8G\	Fac	8Bn\	Fac	8g\	Fac	8dd\	[Fac	.	.	.
8Bn\	.	4r	4r	8Bn\	e-	8B\	e-	8g\	e-	8dd\	e-	4r	4r	.
8G\J	.	.	.	8G\	-as	8B\	-as	8g\	-as	8dd\	-as	.	.	.
!LO:TX:a:t=P:problem:mixed beam	!	!	!	!	!	!	!	!	!	!	!	!	!	!
8c\L	.	8r	8r	8.c\	Do-	8.c\	Do-	8.g\	Do-	8.ee-\	Do-	8r	8r	.
8C/	.	8ee-\L	8gg\L	.	.	.	.	.	.	.	-mi-	8ee-\L	8gg\L	.
.	.	.	.	16c\	-mi-	16d\	-mi-	16g\	-mi-	16ee-\	-mi-	.	.	.
8E-/	.	8ee-\	8gg\	8c\	-ne	8e-\	-ne	8g,\	-ne	8ee-\	-ne	8ee-\	8gg\	.
*	*	*	*	*	*Xij	*	*Xij	*	*Xij	*	*	*	*	*
8C/J	.	8ee-\J	8gg\J	8c\	de	8c\	de	8g\	de	8ee-\	de]	8ee-\J	8gg\J	.
!	!	!	!	!	!	!	!	!	!	!LO:PB:g=original	!	!	!	!
=21	=21	=21	=21	=21	=21	=21	=21	=21	=21	=21	=21	=21	=21	=21
!	!	!	!	!	!	!	!	!	!	!	!	!LO:TX:a:t=P:problem:♮ above	!	!
8BBn/L	X 6	4bn\	4dd\	(>8Bn\L	mor-	(>8d\L	mor-	4g\	mor-	(>8dd\L	mor-	4bn\	4dd\	.
8AA/	.	.	.	8A\J)	.	8c\J)	.	.	.	8cc\J)	.	.	.	.
8BB/	.	4r	4r	8B\	-te	8Bn\	-te	8g\	-te	8dd\	-te	4r	4r	.
8GG/J	.	.	.	8G\	tran-	8B\	tran-	8g\	tran-	8dd\	tran-	.	.	.
8C/L	.	8r	8r	4c\	-si-	4c\	-ſi-	4g\	-si-	4ee-\	-si-	8r	8r	.
8D/	.	8ee-\L	8gg\L	.	.	.	.	.	.	.	.	8ee-\L	8gg\L	.
8E-/	.	8ee-\	8gg\	8c\	-re	8c\	-re	8g\	-re	8ee-\	-re	8ee-\	8gg\	.
!	!	!	!	!	!	!LO:LB:g=original	!	!	!	!	!	!	!	!
*	*	*	*	*	*	*	*ij	*	*	*	*	*	*	*
8C/J	.	8ee-\J	8gg\J	8c\	de	8c\	de	8g\	de	8ee-\	de	8ee-\J	8gg\J	.
=22	=22	=22	=22	=22	=22	=22	=22	=22	=22	=22	=22	=22	=22	=22
!	!	!	!	!	!	!	!	!	!	!	!	!LO:TX:a:t=P:problem:♮ above	!	!
8BBn/L	X 6	4bn\	4dd\	8Bn\L	mor-	(>8d\L	mor-	4g\	mor-	(>8dd\L	mor-	4bn\	4dd\	.
8AA/	.	.	.	(>8A\J	-te	8c\J)	-te	.	.	8cc\J)	.	.	.	.
8BB/	.	4r	4r	8B\)	.	8Bn\	.	8g\	-te	8dd\	-te	4r	4r	.
8GG/J	.	.	.	8G\	tran-	8B\	tran-	8g\	tran-	8dd\	tran-	.	.	.
!LO:LB:g=original	!	!	!	!	!	!	!	!	!	!	!	!	!	!
4C/	.	8r	8r	4c\	-si-	4c\	-ſi-	4g\	-si-	4ee-\	-si-	8r	8r	.
.	.	8ee-\L	8gg\L	.	.	.	.	.	.	.	.	8ee-\L	8gg\L	.
8r	.	8ee-\	8gg\	8c\	-re	8c\	-re	8g\	-re	8ee-\	-re	8ee-\	8gg\	.
*	*	*	*	*	*	*	*Xij	*	*	*	*	*	*	*
8G\	.	8dd\J	8bbn\J	8G\	ad	8Bn\	ad	8g\	ad	8dd\	ad	8dd\J	8gg\J	.
!	!	!	!	!LO:LB:g=original	!	!	!	!	!	!	!	!	!LO:LB:g=original	!
=23	=23	=23	=23	=23	=23	=23	=23	=23	=23	=23	=23	=23	=23	=23
!LO:TX:a:t=P:problem:mixed beam	!	!	!	!LO:SIC:s=8A-	!	!	!	!	!	!	!	!	!	!
8A-X\L	.	8ee-\L	8ccc\L	8A\L	vi-	(>4c\	vi-	(>4a-X\	vi-	(>8cc\L	vi-	8cc\L	16ff\LL	.
.	.	.	.	.	.	.	.	.	.	.	.	.	16gg\	.
8F\	.	8ee-\J	8ccc\J	8F\J	.	.	.	.	.	16dd\L	.	8cc\J	16ee-\	.
.	.	.	.	.	.	.	.	.	.	16cc\JJ)	.	.	16ff\JJ	.
!	!	!	!LO:TX:a:t=P:problem:♮ above	!	!	!	!	!	!	!	!	!	!	!
8G\	.	4dd\	4bbn\	4G\	-tam	4d\)	-tam	4g\)	-tam	4bn\	.	8.g/L	8.dd\L	.
8GG/J	X 4	.	.	.	.	.	.	.	.	.	.	.	.	.
.	X 3	.	.	.	.	.	.	.	.	.	.	16f/Jk	16cc\Jk	.
4C/	.	4ee-\	4ccc\	4C/	.	4c\	.	4g\	.	4cc\	-tam	4e-/	4cc\	.
!	!	!LO:TX:a:t=P:problem:brak pauzy (uszkodzony papier)	!	!	!	!	!	!	!	!	!	!	!	!
8r	.	4ryy	4r	8r	.	8r	.	8r	.	8r	.	4r	4r	.
8C/	.	.	.	8c\	de	8c\	de	8g\	de	8ee-\	de	.	.	.
!	!	!LO:LB:g=original	!	!	!	!	!	!LO:LB:g=original	!	!	!	!	!	!
=24	=24	=24	=24	=24	=24	=24	=24	=24	=24	=24	=24	=24	=24	=24
8BBn/L	X 6	4r	4r	(>8Bn\L	mor-	8d\L	mor-	4g\	mor-	8dd\L	mor-	4r	4r	.
8AA/	.	.	.	8A\J)	.	8c\J	.	.	.	(>8cc\J	.	.	.	.
8BB/	.	8r	8r	8B\	-te	8Bn\	-te	8g\	-te	8dd\)	-te	8r	8r	.
!	!	!	!	!	!	!	!	!	!	!	!	!LO:SIC:s=8bn	!	!
8GG/J	.	8bn\	8dd\	8G\	tran-	8B\	tran-	8g\	tran-	8dd\	tran-	8b-\|	8dd\	.
8C/L	.	8ee-\L	8gg\L	4c\	-si-	4c\	-si-	4g\	-si-	4ee-\	-si-	8ee-\L	8ee-\L	.
8D/	.	8ee-\	8gg\	.	.	.	.	.	.	.	.	8ee-\	8gg\	.
8E-/	.	8ee-\	8gg\	8c\	-re	8c\	-re	8g\	-re	8ee-\	-re	8ee-\	8gg\	.
*	*	*	*	*	*	*	*ij	*	*ij	*	*ij	*	*	*
8C/J	.	8ee-\J	8gg\J	8c\	de	8c\	de	8g\	de	8ee-\	de	8ee-\J	8gg\J	.
!	!	!	!	!	!	!	!	!	!	!	!	!LO:LB:g=original	!	!
=25	=25	=25	=25	=25	=25	=25-	=25	=25	=25	=25	=25	=25	=25	=25
!	!	!LO:TX:a:t=P:problem:♮ above	!	!	!	!	!	!	!	!	!	!LO:TX:a:t=P:problem:♮ above	!	!
8BBn/L	X 6	4bn\	4dd\	8Bn\L	mor-	8d\L	mor-	4g\	mor-	(>8dd\L	mor-	4bn\	4dd\	.
8AA/	.	.	.	8A\J	.	8c\J	.	.	.	8cc\J)	.	.	.	.
8BB/	.	8r	8r	8B\	-te	8Bn\	-te	8g\	-te	8dd\	-te	8r	8r	.
8GG/J	.	8b\	8dd\	8G\	tran-	8B\	tran-	8g\	tran-	8dd\	tran-	8b\	8dd\	.
4C/	.	8ee-\L	8gg\L	4c\	-si-	4c\	-si-	4g\	-si-	4ee-\	-si-	8ee-\L	8gg\L	.
.	.	8ee-\	8gg\	.	.	.	.	.	.	.	.	8ee-\	8gg\	.
8r	.	8ee-\	8gg\	8c\	-re	8c\	-re	8g\	-re	8ee-\	-re	8ee-\	8gg\	.
*	*	*	*	*	*	*	*Xij	*	*Xij	*	*Xij	*	*	*
!	!	!	!LO:TX:a:t=P:problem:♮ above	!	!	!	!	!	!	!	!	!	!	!
8G\	.	8dd\J	8bbn\J	8G\	ad	8d\	ad	8g\	ad	8dd\	ad	8dd\J	8gg\J	.
!	!	!	!	!	!	!LO:LB:g=original	!	!	!	!	!	!	!	!
=26	=26	=26	=26	=26	=26	=26	=26	=26	=26	=26	=26	=26	=26	=26
!LO:TX:a:t=P:problem:mixed beam	!	!	!	!	!	!	!	!	!	!	!	!	!	!
8A-X\L	.	8ee-\L	8ccc\L	8A-X\L	Vi-	4c\	vi-	(>4a-X\	vi-	8cc\L	vi-	8cc\L	16ff\LL	.
.	.	.	.	.	.	.	.	.	.	.	.	.	16gg\	.
8F\	.	8ee-\J	8ccc\J	8F\J	.	.	.	.	.	(>16dd\L	.	8cc\J	16ee-\	.
.	.	.	.	.	.	.	.	.	.	16cc\JJ)	.	.	16ff\JJ	.
!	!	!	!LO:LB:g=original	!	!	!	!	!	!	!	!	!	!	!
!	!	!	!LO:TX:a:t=P:problem:♮ above	!	!	!	!	!	!	!	!	!	!	!
8G\	.	4dd\	4bbn\	4G\	.	4d\	-tam	4g\)	-tam	4bn\	.	8.g/L	8.dd\L	.
8GG/J	.	.	.	.	.	.	.	.	.	.	.	.	.	.
.	.	.	.	.	.	.	.	.	.	.	.	16f/Jk	16cc\Jk	.
4C/	.	4ee-\	4ccc\	4C/	-tam	4c\	.	4g\	.	4cc\	-tam	4e-/	4cc\	.
!	!	!	!LO:TX:i:b:t=tarde	!	!	!	!	!	!	!	!	!	!	!
4r	.	4r	4r	4r	.	4r	.	4r	.	4r	.	4r	4r	.
!	!	!	!	!	!	!	!	!	!	!LO:LB:g=original	!	!	!	!
=27	=27	=27	=27	=27	=27	=27	=27	=27	=27	=27	=27	=27	=27	=27
!	!	!	!LO:TX:a:t=P:problem:♭ above	!	!	!	!	!	!	!	!	!	!LO:TX:i:a:t=tardo	!
!LO:TX:b:i:t=tarde	!	!	!LO:TX:i:b:t=amen	!LO:TX:i:a:t=tarde	!	!	!	!LO:TX:i:b:t=tarde	!	!LO:TX:i:a:t=tarde	!	!	!LO:TX:i:b:t=amen	!
2F\	X -	[>2cc\	2aa-X\	2F\	a-	2f\	a-	2a-X\	A-	2cc\	a-	2a-X/	2cc\	.
!	!	!LO:TX:a:t=P:problem:podwójna kreska taktowa z obustronną repetycją	!	!	!	!	!	!	!	!	!	!	!	!
2C/	X 4	2cc\]	2gg\	2C/	-men	2en\	-men	2g\	-men	2cc\	-men	2g/	2cc\	.
.	X 3	.	.	.	.	.	.	.	.	.	.	.	.	.
==	==	==	==	==	==	==	==	==	==	==	==	==	==	==
*-	*-	*-	*-	*-	*-	*-	*-	*-	*-	*-	*-	*-	*-	*-
!!!system-decoration: [(s1,s2)][(s3,s4,s5,s6)][(s7,s8)]s9
!!!RDF**kern: > = above
!!!RDF**kern: < = below
!!!EED: Mateusz Mrugas
!!!EST: 2020-12-03
!!!AIN: 1 alto 1 empty 2 oboe 1 organ 1 tenor 2 violn 1 vox
!!!ENC: Andrzej Borzym
!!!END: 2020-04-29
!!!RDF**kern: | = vertical stroke
